docs/.gitbook/assets/icon-footprints-16@light.svg

<svg width="32" height="32" viewBox="0 0 16 16" fill="none" xmlns="http://www.w3.org/2000/svg">
<rect x="0" y="0" width="16" height="16" fill="#fff"/>
<path fill-rule="evenodd" clip-rule="evenodd" d="M12 2.5C11.2984 2.5 10.8966 2.73201 10.7659 3.03958C10.6252 3.37057 10.5 3.84636 10.5 4.5C10.5 5.63297 10.8767 6.24552 11.0821 6.4993C11.0873 6.49972 11.0933 6.5 11.1001 6.5H12.8999C12.9067 6.5 12.9127 6.49972 12.9179 6.4993C13.1233 6.24552 13.5 5.63297 13.5 4.5C13.5 3.84636 13.3748 3.37057 13.2341 3.03958C13.1034 2.73201 12.7016 2.5 12 2.5ZM9.38533 2.45295C9.8783 1.29281 11.1069 1 12 1C12.8931 1 14.1217 1.29281 14.6147 2.45295C14.8354 2.97249 15 3.64808 15 4.5C15 6.07713 14.4367 7.03172 14.0299 7.50782C13.7072 7.88545 13.2578 8 12.8999 8H11.1001C10.7422 8 10.2928 7.88545 9.97009 7.50782C9.56328 7.03172 9 6.07713 9 4.5C9 3.64808 9.16456 2.97249 9.38533 2.45295L10.0756 2.74627L9.38533 2.45295ZM4 4.5C3.29839 4.5 2.89656 4.73201 2.76586 5.03958C2.62521 5.37057 2.5 5.84636 2.5 6.5C2.5 7.63297 2.8767 8.24552 3.08213 8.4993C3.08728 8.49972 3.09327 8.5 3.1001 8.5H4.8999C4.90673 8.5 4.91272 8.49972 4.91787 8.4993C5.1233 8.24552 5.5 7.63297 5.5 6.5C5.5 5.84636 5.37479 5.37057 5.23414 5.03958C5.10344 4.73201 4.70161 4.5 4 4.5ZM1.38533 4.45295C1.8783 3.29281 3.10689 3 4 3C4.89311 3 6.1217 3.29281 6.61467 4.45295C6.83544 4.97249 7 5.64808 7 6.5C7 8.07713 6.43672 9.03172 6.02991 9.50782C5.70723 9.88545 5.25776 10 4.8999 10H3.1001C2.74224 10 2.29277 9.88545 1.97009 9.50782C1.56328 9.03172 1 8.07713 1 6.5C1 5.64808 1.16456 4.97249 1.38533 4.45295ZM9.99902 9.75C9.99902 9.33579 10.3348 9 10.749 9H13.249C13.6632 9 13.999 9.33579 13.999 9.75V11.25C13.999 12.2165 13.2155 13 12.249 13H11.749C10.7825 13 9.99902 12.2165 9.99902 11.25V9.75ZM11.499 10.5V11.25C11.499 11.3881 11.611 11.5 11.749 11.5H12.249C12.3871 11.5 12.499 11.3881 12.499 11.25V10.5H11.499ZM1.99902 11.75C1.99902 11.3358 2.33481 11 2.74902 11H5.24902C5.66324 11 5.99902 11.3358 5.99902 11.75V13.25C5.99902 14.2165 5.21552 15 4.24902 15H3.74902C2.78253 15 1.99902 14.2165 1.99902 13.25V11.75ZM3.49902 12.5V13.25C3.49902 13.3881 3.61095 13.5 3.74902 13.5H4.24902C4.38709 13.5 4.49902 13.3881 4.49902 13.25V12.5H3.49902Z" fill="#000"/>
</svg>

<svg xmlns="http://www.w3.org/2000/svg" width="32" height="32" fill="none" viewBox="0 0 16 16"><path fill="#fff" d="M0 0h16v16H0z"/><path fill="#000" fill-rule="evenodd" d="M12 2.5c-.702 0-1.103.232-1.234.54-.14.33-.266.806-.266 1.46 0 1.133.377 1.746.582 2h1.836c.205-.254.582-.867.582-2 0-.654-.125-1.13-.266-1.46-.13-.308-.532-.54-1.234-.54m-2.615-.047C9.878 1.293 11.107 1 12 1s2.122.293 2.615 1.453c.22.52.385 1.195.385 2.047 0 1.577-.563 2.532-.97 3.008-.323.377-.772.492-1.13.492h-1.8c-.358 0-.807-.115-1.13-.492C9.563 7.032 9 6.078 9 4.5c0-.852.165-1.528.385-2.047l.69.293zM4 4.5c-.702 0-1.103.232-1.234.54-.14.33-.266.806-.266 1.46 0 1.133.377 1.746.582 2h1.836c.205-.254.582-.867.582-2 0-.654-.125-1.13-.266-1.46-.13-.308-.532-.54-1.234-.54m-2.615-.047C1.878 3.293 3.107 3 4 3s2.122.293 2.615 1.453C6.835 4.973 7 5.648 7 6.5c0 1.577-.563 2.532-.97 3.008-.323.377-.772.492-1.13.492H3.1c-.358 0-.807-.115-1.13-.492C1.563 9.032 1 8.078 1 6.5c0-.852.165-1.528.385-2.047M10 9.75a.75.75 0 0 1 .75-.75h2.5a.75.75 0 0 1 .75.75v1.5A1.75 1.75 0 0 1 12.25 13h-.5A1.75 1.75 0 0 1 10 11.25zm1.5.75v.75c0 .138.112.25.25.25h.5a.25.25 0 0 0 .25-.25v-.75zM2 11.75a.75.75 0 0 1 .75-.75h2.5a.75.75 0 0 1 .75.75v1.5A1.75 1.75 0 0 1 4.249 15h-.5a1.75 1.75 0 0 1-1.75-1.75zm1.5.75v.75c0 .138.112.25.25.25h.5a.25.25 0 0 0 .25-.25v-.75z" clip-rule="evenodd"/></svg>
